img/icons/mime/large/3ds.svg

<svg height="140" width="124.5" xmlns="http://www.w3.org/2000/svg" xmlns:xlink="http://www.w3.org/1999/xlink"><linearGradient id="a" gradientTransform="matrix(.9341505 0 0 .8829252 -10.487259 -1.5154)" gradientUnits="userSpaceOnUse" x1="24" x2="73" y1="16.4" y2="73.4"><stop offset="0" stop-color="#fff"/><stop offset="1" stop-color="#fff" stop-opacity="0"/></linearGradient><radialGradient id="b" cx="63.2" cy="50.1" fy="51.5" gradientUnits="userSpaceOnUse" r="167.4"><stop offset="0" stop-color="#46a046"/><stop offset=".4" stop-color="#df421e"/><stop offset=".7" stop-color="#ada7c8"/><stop offset="1" stop-color="#eed680"/></radialGradient><rect fill="none" height="132.5" rx="22.9" stroke="#000" stroke-linejoin="round" stroke-opacity=".5" stroke-width="7.5" width="117" x="3.8" y="3.8"/><rect fill="#df421e" height="132.5" rx="22.9" stroke="#000" stroke-width="3.8" width="117" x="3.8" y="3.8"/><path d="m99.7 132.6h-75.7c-11.7 0-17.4-5.7-17.4-17.3 0 0 27.6-66.5 110.4-76.7v76.7c0 11.6-5.7 17.3-17.3 17.3z" fill="#fff" fill-opacity=".3"/><path d="m121.2 66.6a44.7 44.7 0 1 1 -89.3 0 44.7 44.7 0 1 1 89.3 0z" fill="url(#b)" stroke="#000" stroke-width="4" transform="matrix(.798804 0 0 .798804 1.498867 -3.665872)"/><path d="m108 93.7v5.3h-17.2c-1.1 0-2.1.3-3 1-.7.7-1.1 1.6-1.1 2.7 0 1.3.4 2.3 1.2 2.9s1.7.9 3 .9h9.7c2.1 0 4.1.6 5.8 1.8 2.2 1.6 3.3 4.1 3.3 7.3 0 3.1-1.1 5.5-3.3 7.3-1.7 1.3-3.6 1.9-5.8 1.9h-20.6v-5.3h17.6c1 0 1.9-.4 2.8-1.1.8-.7 1.3-1.7 1.3-2.8s-.5-2-1.3-2.7c-.8-.8-1.8-1.1-2.9-1.1h-9.8c-2.2 0-4.1-.6-5.8-1.8-2.2-1.6-3.2-4.1-3.2-7.3s1-5.6 3.2-7.2c1.7-1.2 3.6-1.8 5.8-1.8zm-61.9 0h16.5c4.2 0 7.4 1.3 9.6 4 2.2 2.6 3.3 6.5 3.3 11.5s-1.1 8.9-3.3 11.5c-2.2 2.7-5.4 4.1-9.6 4.1h-16.5zm6.5 25.8h7.9c2.6 0 4.5-.9 5.8-2.6 1.2-1.7 1.8-4.2 1.8-7.7 0-3.4-.6-6-1.8-7.7-1.1-1.6-3.1-2.5-5.8-2.5h-7.9zm-14.2-10c1.3.6 2.2 1.3 2.8 2.1 1.2 1.4 1.7 3 1.7 4.9 0 2.8-1.1 4.9-3.2 6.5-.9.6-1.8 1.1-2.8 1.3-1 .3-2 .5-3.1.5h-17.5v-5.3h15.3c1.2 0 2.2-.3 2.9-.9.8-.7 1.3-1.6 1.3-3 0-1.3-.4-2.2-1.2-2.9-.8-.6-1.8-.9-3-.9h-11.8v-5.1h11.8c1.2 0 2.1-.3 2.9-.9s1.3-1.6 1.3-3c0-1.2-.4-2.1-1.2-2.8-.8-.6-1.8-1-3-1h-15.3v-5.3h17.5c2.2 0 4.1.5 5.9 1.7 2.1 1.5 3.2 3.7 3.2 6.5 0 1.9-.5 3.5-1.7 4.9-.6.8-1.6 1.5-2.8 2.1l-.5.3z"/><path d="m107.3 93v5.3h-17.2c-1.1 0-2.1.4-3 1-.7.7-1.1 1.6-1.1 2.8s.4 2.2 1.3 2.8c.7.6 1.7.9 2.9.9h9.7c2.2 0 4.1.6 5.8 1.8 2.2 1.7 3.3 4.1 3.3 7.3 0 3.1-1.1 5.6-3.3 7.3-1.7 1.3-3.6 1.9-5.8 1.9h-20.6v-5.3h17.6c1 0 1.9-.4 2.8-1.1.8-.7 1.3-1.6 1.3-2.8 0-1.1-.5-2-1.3-2.7s-1.8-1.1-2.9-1.1h-9.8c-2.1 0-4.1-.6-5.7-1.8-2.2-1.6-3.3-4-3.3-7.2s1.1-5.6 3.3-7.3c1.6-1.2 3.5-1.8 5.7-1.8zm-61.9 0h16.5c4.2 0 7.4 1.3 9.6 4s3.3 6.5 3.3 11.5-1.1 8.9-3.3 11.6-5.4 4-9.6 4h-16.5zm6.5 25.8h7.9c2.6 0 4.5-.9 5.8-2.5 1.2-1.7 1.9-4.3 1.9-7.8 0-3.4-.6-6-1.8-7.6-1.2-1.7-3.2-2.6-5.9-2.6h-7.9zm-14.2-10c1.3.6 2.2 1.3 2.8 2.1 1.2 1.4 1.8 3.1 1.8 4.9 0 2.8-1.1 4.9-3.3 6.5-.9.6-1.8 1.1-2.8 1.4s-2 .4-3.1.4h-17.5v-5.3h15.3c1.2 0 2.2-.3 2.9-.9.9-.6 1.3-1.6 1.3-3 0-1.2-.4-2.2-1.2-2.8-.8-.7-1.8-1-3-1h-11.8v-5.1h11.8c1.2 0 2.2-.3 2.9-.9.9-.6 1.3-1.6 1.3-3 0-1.2-.4-2.1-1.2-2.8-.8-.6-1.8-1-3-1h-15.3v-5.3h17.5c2.2 0 4.1.6 5.9 1.7 2.2 1.6 3.3 3.7 3.3 6.6 0 1.8-.6 3.4-1.8 4.8-.6.8-1.5 1.5-2.8 2.2l-.5.2z" fill="#fff"/><path d="m26 9h75.3c11.5 0 17.2 5.6 17.2 17.1 0 0-78.8.9-109.7 89.9v-89.9c0-10.1 7-17.1 17.2-17.1z" fill="url(#a)"/></svg>

<svg xmlns:svg="http://www.w3.org/2000/svg" xmlns="http://www.w3.org/2000/svg" xmlns:xlink="http://www.w3.org/1999/xlink" id="svg1" width="124.5" height="140" version="1">
  <metadata id="metadata15"/>
  <defs id="defs3">
    <linearGradient id="linearGradient2832">
      <stop id="stop2834" offset="0" style="stop-color:#ffffff;stop-opacity:1"/>
      <stop id="stop2836" offset="1" style="stop-color:#ffffff;stop-opacity:0"/>
    </linearGradient>
    <linearGradient gradientUnits="userSpaceOnUse" y2="73.4" x2="73" y1="16.4" x1="24" gradientTransform="matrix(0.9341505,0,0,0.8829252,-10.487259,-1.5153996)" id="linearGradient2830" xlink:href="#linearGradient2832"/>
    <linearGradient id="linearGradient1356">
      <stop offset="0" id="stop1358" style="stop-color:#46a046;stop-opacity:1"/>
      <stop offset="0.4" id="stop1360" style="stop-color:#df421e;stop-opacity:1"/>
      <stop offset="0.7" id="stop1362" style="stop-color:#ada7c8;stop-opacity:1"/>
      <stop offset="1" id="stop1364" style="stop-color:#eed680;stop-opacity:1"/>
    </linearGradient>
    <radialGradient xlink:href="#linearGradient1356" id="radialGradient3673" cx="63.2" cy="50.1" fx="63.2" fy="51.5" r="167.4" gradientUnits="userSpaceOnUse"/>
  </defs>
  <rect id="rect834" width="117" height="132.5" x="3.8" y="3.8" ry="22.9" rx="22.9" style="fill:none;stroke-linejoin:round;stroke-opacity:0.5;stroke-width:7.5;stroke:#000"/>
  <rect id="rect828" width="117" height="132.5" x="3.8" y="3.8" ry="22.9" rx="22.9" style="fill:#df421e;stroke-width:3.8;stroke:#000"/>
  <path id="path2838" d="M99.7 132.6L24 132.6C12.3 132.6 6.6 126.9 6.6 115.3 6.6 115.3 34.2 48.8 117 38.6L117 115.3C117 126.9 111.3 132.6 99.7 132.6z" style="fill-opacity:0.3;fill:#fff"/>
  <path transform="matrix(0.798804,0,0,0.798804,1.4988667,-3.6658716)" d="M121.2 66.6A44.7 44.7 0 1 1 31.9 66.6 44.7 44.7 0 1 1 121.2 66.6z" id="path834" style="fill:url(#radialGradient3673);stroke-width:4;stroke:#000"/>
  <path d="M108 93.7L108 99 90.8 99C89.7 99 88.7 99.3 87.8 100 87.1 100.7 86.7 101.6 86.7 102.7 86.7 104 87.1 105 87.9 105.6 88.7 106.2 89.6 106.5 90.9 106.5L100.6 106.5C102.7 106.5 104.7 107.1 106.4 108.3 108.6 109.9 109.7 112.4 109.7 115.6 109.7 118.7 108.6 121.1 106.4 122.9 104.7 124.2 102.8 124.8 100.6 124.8L80 124.8 80 119.5 97.6 119.5C98.6 119.5 99.5 119.1 100.4 118.4 101.2 117.7 101.7 116.7 101.7 115.6 101.7 114.5 101.2 113.6 100.4 112.9 99.6 112.1 98.6 111.8 97.5 111.8L87.7 111.8C85.5 111.8 83.6 111.2 81.9 110 79.7 108.4 78.7 105.9 78.7 102.7 78.7 99.5 79.7 97.1 81.9 95.5 83.6 94.3 85.5 93.7 87.7 93.7L108 93.7zM46.1 93.7L62.6 93.7C66.8 93.7 70 95 72.2 97.7 74.4 100.3 75.5 104.2 75.5 109.2 75.5 114.2 74.4 118.1 72.2 120.7 70 123.4 66.8 124.8 62.6 124.8L46.1 124.8 46.1 93.7zM52.6 119.5L60.5 119.5C63.1 119.5 65 118.6 66.3 116.9 67.5 115.2 68.1 112.7 68.1 109.2 68.1 105.8 67.5 103.2 66.3 101.5 65.2 99.9 63.2 99 60.5 99L52.6 99 52.6 119.5zM38.4 109.5C39.7 110.1 40.6 110.8 41.2 111.6 42.4 113 42.9 114.6 42.9 116.5 42.9 119.3 41.8 121.4 39.7 123 38.8 123.6 37.9 124.1 36.9 124.3 35.9 124.6 34.9 124.8 33.8 124.8L16.3 124.8 16.3 119.5 31.6 119.5C32.8 119.5 33.8 119.2 34.5 118.6 35.3 117.9 35.8 117 35.8 115.6 35.8 114.3 35.4 113.4 34.6 112.7 33.8 112.1 32.8 111.8 31.6 111.8L19.8 111.8 19.8 106.7 31.6 106.7C32.8 106.7 33.7 106.4 34.5 105.8 35.3 105.2 35.8 104.2 35.8 102.8 35.8 101.6 35.4 100.7 34.6 100 33.8 99.4 32.8 99 31.6 99L16.3 99 16.3 93.7 33.8 93.7C36 93.7 37.9 94.2 39.7 95.4 41.8 96.9 42.9 99.1 42.9 101.9 42.9 103.8 42.4 105.4 41.2 106.8 40.6 107.6 39.6 108.3 38.4 108.9L37.9 109.2 38.4 109.5z" id="path842" style="font-family:Trek;font-size:40"/>
  <path d="M107.3 93L107.3 98.3 90.1 98.3C89 98.3 88 98.7 87.1 99.3 86.4 100 86 100.9 86 102.1 86 103.3 86.4 104.3 87.3 104.9 88 105.5 89 105.8 90.2 105.8L99.9 105.8C102.1 105.8 104 106.4 105.7 107.6 107.9 109.3 109 111.7 109 114.9 109 118 107.9 120.5 105.7 122.2 104 123.5 102.1 124.1 99.9 124.1L79.3 124.1 79.3 118.8 96.9 118.8C97.9 118.8 98.8 118.4 99.7 117.7 100.5 117 101 116.1 101 114.9 101 113.8 100.5 112.9 99.7 112.2 98.9 111.5 97.9 111.1 96.8 111.1L87 111.1C84.9 111.1 82.9 110.5 81.3 109.3 79.1 107.7 78 105.3 78 102.1 78 98.9 79.1 96.5 81.3 94.8 82.9 93.6 84.8 93 87 93L107.3 93zM45.4 93L61.9 93C66.1 93 69.3 94.3 71.5 97 73.7 99.7 74.8 103.5 74.8 108.5 74.8 113.5 73.7 117.4 71.5 120.1 69.3 122.8 66.1 124.1 61.9 124.1L45.4 124.1 45.4 93zM51.9 118.8L59.8 118.8C62.4 118.8 64.3 117.9 65.6 116.3 66.8 114.6 67.5 112 67.5 108.5 67.5 105.1 66.9 102.5 65.7 100.9 64.5 99.2 62.5 98.3 59.8 98.3L51.9 98.3 51.9 118.8zM37.7 108.8C39 109.4 39.9 110.1 40.5 110.9 41.7 112.3 42.3 114 42.3 115.8 42.3 118.6 41.2 120.7 39 122.3 38.1 122.9 37.2 123.4 36.2 123.7 35.2 124 34.2 124.1 33.1 124.1L15.6 124.1 15.6 118.8 30.9 118.8C32.1 118.8 33.1 118.5 33.8 117.9 34.7 117.3 35.1 116.3 35.1 114.9 35.1 113.7 34.7 112.7 33.9 112.1 33.1 111.4 32.1 111.1 30.9 111.1L19.1 111.1 19.1 106 30.9 106C32.1 106 33.1 105.7 33.8 105.1 34.7 104.5 35.1 103.5 35.1 102.1 35.1 100.9 34.7 100 33.9 99.3 33.1 98.7 32.1 98.3 30.9 98.3L15.6 98.3 15.6 93 33.1 93C35.3 93 37.2 93.6 39 94.7 41.2 96.3 42.3 98.4 42.3 101.3 42.3 103.1 41.7 104.7 40.5 106.1 39.9 106.9 39 107.6 37.7 108.3L37.2 108.5 37.7 108.8z" id="path2143" style="fill:#fff;font-family:Trek;font-size:40"/>
  <path id="rect2063" d="M26 9L101.3 9C112.8 9 118.5 14.6 118.5 26.1 118.5 26.1 39.7 27 8.8 116L8.8 26.1C8.8 16 15.8 9 26 9z" fill="url(#linearGradient2830)"/>
</svg>
